src/images/icon/image_emptyData.svg

<svg height="150" viewBox="0 0 280 150" width="280" xmlns="http://www.w3.org/2000/svg" xmlns:xlink="http://www.w3.org/1999/xlink"><defs><linearGradient id="a"><stop offset="0" stop-color="#dfe7ee"/><stop offset="1" stop-color="#eff4f9" stop-opacity="0"/></linearGradient><linearGradient id="b" x1="53.595264%" x2="50%" xlink:href="#a" y1="63.385399%" y2="100%"/><linearGradient id="c" x1="36.102995%" x2="64.118261%" xlink:href="#a" y1="37.465789%" y2="100%"/><linearGradient id="d" x1="64.98301%" x2="34.618868%" xlink:href="#a" y1="28.769754%" y2="100%"/><linearGradient id="e" x1="50%" x2="50%" xlink:href="#a" y1="0%" y2="27.674164%"/><linearGradient id="f" x1="16.197531%" x2="47.015045%" y1="0%" y2="82.713087%"><stop offset="0" stop-color="#e5ecf2"/><stop offset="1" stop-color="#dfe7ee"/></linearGradient><linearGradient id="g" x1="-13.81734%" x2="83.326801%" y1="-17.854192%" y2="90.002919%"><stop offset="0" stop-color="#1ee7e7"/><stop offset="1" stop-color="#0080ff"/></linearGradient><circle id="h" cx="22.5" cy="22.5" r="22.5"/><linearGradient id="i" x1="50%" x2="50%" xlink:href="#a" y1="0%" y2="132.650821%"/><linearGradient id="j" x1="50%" x2="50%" xlink:href="#a" y1="0%" y2="126.227559%"/></defs><g fill="none" fill-rule="evenodd"><path d="m221.957594 78.0874389c-2.168471 5.7584684-2.546416 9.5897114-1.133832 11.4937292 2.118874 2.8560267 2.489385 5.7056238 1.84394 8.9835039-.430296 2.185253-2.632155 4.816131-6.605575 7.892632 5.682043 2.371288 4.348211 7.683371-4.001495 15.936249-2.992657.175497-5.65953.231212-8.000619.167144.538565-2.932059 1.584783-6.789153 3.138872-11.571417 2.292388-7.05417 4.608258-12.7931695 6.947611-17.2169997-8.563759 12.3349757-13.652256 21.7942167-15.265489 28.3777217-5.422835-.796021-7.88051-2.682405-7.373206-5.658935 1.223637-7.179515 5.074637-7.775876 9.121112-11.14983 2.15238-1.794657 2.299234-3.981073 2.25042-6.1039706l-.014546-.5080427c-.05483-1.6878565-.142224-3.3117505.664465-4.6385792 1.895721-3.1180474 8.609987-1.6684846 10.269015-7.8202962 1.106019-4.1012077 3.825795-6.8288442 8.159327-8.1829094z" fill="url(#b)"/><path d="m60.7585218 122.393553c-7.234619 0-11.8980315-3.236035-13.9902376-9.708106-3.1383091-9.707682-.762932-9.707682 0-9.707682s7.3118707 10.393129 9.2651914 9.707682-5.1815717-13.5975156-5.1815717-23.0796438c0-9.4821283 3.7746662-15.5922992 7.8533652-16.4384762s9.9663285 3.7378629 9.9663285 17.9109527c0 8.7704158 1.8992127 9.7331093 3.231859 8.8408927 1.5468373-1.0356189 3.6079784-13.0828453 8.8237921-13.0828453 6.8666366 0 12.7682588 10.5260716 10.3553031 27.9498309-1.1067137 2.491479-11.2147237 5.027277-30.32403 7.607395z" fill="url(#c)"/><path d="m240.526315 101.568193c-2.308314-1.330547-4.828112-1.242065-8.606995 1.118076-3.778882 2.360141-10.181513 8.395956-13.793451 20.709818l15.136712 4.384659c1.816816-4.78209 4.238061-9.180854 7.263734-13.19629 4.53851-6.023155 2.308314-11.685716 0-13.016263z" fill="url(#d)"/><ellipse cx="140" cy="179" fill="url(#e)" rx="156" ry="67"/><g transform="translate(103 33)"><rect fill="#f4f8fc" height="85" rx="8" stroke="url(#f)" stroke-width="5" width="69" x="2.5" y="5.5"/><rect fill="#dfe7ee" height="11" rx="3" width="34" x="20"/><rect fill="#d4dfeb" height="3" rx="1.5" width="12" x="12" y="25"/><rect fill="#e0e9f2" height="3" opacity=".8" rx="1.5" width="12" x="50" y="40"/><rect fill="#d4dfeb" height="3" rx="1.5" width="34" x="28" y="25"/><g fill="#e0e9f2"><rect height="3" opacity=".8" rx="1.5" width="34" x="12" y="40"/><rect height="3" opacity=".8" rx="1.5" width="20" x="12" y="55"/><rect height="3" opacity=".8" rx="1.5" width="25" x="12" y="70"/><rect height="3" opacity=".8" rx="1.5" width="26" x="36" y="55"/></g></g><g transform="translate(143 86)"><use fill="url(#g)" xlink:href="#h"/><use fill="#fff" fill-opacity=".3" xlink:href="#h"/></g><g fill="#fff"><rect height="24" rx="2.5" width="5" x="163" y="96.5"/><rect height="12" rx="2.5" width="5" x="156" y="108.5"/><rect height="18" rx="2.5" width="5" x="170" y="102.5"/></g><path d="m58.5 28c-3.0375661 0-5.5-2.4624339-5.5-5.5s2.4624339-5.5 5.5-5.5c.6399775 0 1.2544252.1093056 1.8256928.3102663.9360167-3.0739921 3.794007-5.3102663 7.1743072-5.3102663 4.1421356 0 7.5 3.3578644 7.5 7.5 0 .1780687-.0062057.3546879-.0184126.5296533 1.9816633.2364446 3.5184126 1.9239322 3.5184126 3.9703467 0 2.209139-1.790861 4-4 4z" fill="url(#i)" opacity=".75"/><path d="m115 20c-3.865993 0-7-3.1340068-7-7 0-3.86599325 3.134007-7 7-7 .879935 0 1.721949.16235995 2.497718.45875648 1.267781-3.7552931 4.819318-6.45875648 9.002282-6.45875648 5.246705 0 9.5 4.25329488 9.5 9.5 0 .20064532-.00622.39983782-.018479.5973952 2.291282.4548254 4.018479 2.4770108 4.018479 4.9026048 0 2.7614237-2.238576 5-5 5z" fill="url(#j)" opacity=".75"/></g></svg>

<?xml version="1.0" encoding="UTF-8"?>
<svg width="280px" height="150px" viewBox="0 0 280 150" version="1.1" xmlns="http://www.w3.org/2000/svg" xmlns:xlink="http://www.w3.org/1999/xlink">
    
    <defs>
        <linearGradient x1="53.595264%" y1="63.3853988%" x2="50%" y2="100%" id="linearGradient-1">
            <stop stop-color="#DFE7EE" offset="0%"></stop>
            <stop stop-color="#EFF4F9" stop-opacity="0" offset="100%"></stop>
        </linearGradient>
        <linearGradient x1="36.1029949%" y1="37.4657886%" x2="64.1182611%" y2="100%" id="linearGradient-2">
            <stop stop-color="#DFE7EE" offset="0%"></stop>
            <stop stop-color="#EFF4F9" stop-opacity="0" offset="100%"></stop>
        </linearGradient>
        <linearGradient x1="64.9830103%" y1="28.7697539%" x2="34.6188683%" y2="100%" id="linearGradient-3">
            <stop stop-color="#DFE7EE" offset="0%"></stop>
            <stop stop-color="#EFF4F9" stop-opacity="0" offset="100%"></stop>
        </linearGradient>
        <linearGradient x1="50%" y1="0%" x2="50%" y2="27.6741639%" id="linearGradient-4">
            <stop stop-color="#DFE7EE" offset="0%"></stop>
            <stop stop-color="#EFF4F9" stop-opacity="0" offset="100%"></stop>
        </linearGradient>
        <linearGradient x1="16.1975309%" y1="0%" x2="47.0150454%" y2="82.7130873%" id="linearGradient-5">
            <stop stop-color="#E5ECF2" offset="0%"></stop>
            <stop stop-color="#DFE7EE" offset="100%"></stop>
        </linearGradient>
        <linearGradient x1="-13.8173395%" y1="-17.8541923%" x2="83.326801%" y2="90.0029194%" id="linearGradient-6">
            <stop stop-color="#1EE7E7" offset="0%"></stop>
            <stop stop-color="#0080FF" offset="100%"></stop>
        </linearGradient>
        <circle id="path-7" cx="22.5" cy="22.5" r="22.5"></circle>
        <linearGradient x1="50%" y1="0%" x2="50%" y2="132.650821%" id="linearGradient-8">
            <stop stop-color="#DFE7EE" offset="0%"></stop>
            <stop stop-color="#EFF4F9" stop-opacity="0" offset="100%"></stop>
        </linearGradient>
        <linearGradient x1="50%" y1="0%" x2="50%" y2="126.227559%" id="linearGradient-9">
            <stop stop-color="#DFE7EE" offset="0%"></stop>
            <stop stop-color="#EFF4F9" stop-opacity="0" offset="100%"></stop>
        </linearGradient>
    </defs>
    <g id="Dashboard" stroke="none" stroke-width="1" fill="none" fill-rule="evenodd">
        <g id="06-概览-空数据" transform="translate(-690.000000, -560.000000)">
            <g id="Title备份-6" transform="translate(244.000000, 440.000000)">
                <g id="椭圆形" transform="translate(446.000000, 120.000000)">
                    <path d="M221.957594,78.0874389 C219.789123,83.8459073 219.411178,87.6771503 220.823762,89.5811681 C222.942636,92.4371948 223.313147,95.2867919 222.667702,98.564672 C222.237406,100.749925 220.035547,103.380803 216.062127,106.457304 C221.74417,108.828592 220.410338,114.140675 212.060632,122.393553 C209.067975,122.56905 206.401102,122.624765 204.060013,122.560697 C204.598578,119.628638 205.644796,115.771544 207.198885,110.98928 C209.491273,103.93511 211.807143,98.1961105 214.146496,93.7722803 C205.582737,106.107256 200.49424,115.566497 198.881007,122.150002 C193.458172,121.353981 191.000497,119.467597 191.507801,116.491067 C192.731438,109.311552 196.582438,108.715191 200.628913,105.341237 C202.781293,103.54658 202.928147,101.360164 202.879333,99.2372664 L202.864787,98.7292237 C202.809957,97.0413672 202.722563,95.4174732 203.529252,94.0906445 C205.424973,90.9725971 212.139239,92.4221599 213.798267,86.2703483 C214.904286,82.1691406 217.624062,79.4415041 221.957594,78.0874389 Z" id="形状结合" fill="url(#linearGradient-1)"></path>
                    <path d="M60.7585218,122.393553 C53.5239028,122.393553 48.8604903,119.157518 46.7682842,112.685447 C43.6299751,102.977765 46.0053522,102.977765 46.7682842,102.977765 C47.5312162,102.977765 54.0801549,113.370894 56.0334756,112.685447 C57.9867963,112 50.8519039,99.0879314 50.8519039,89.6058032 C50.8519039,80.1236749 54.6265701,74.013504 58.7052691,73.167327 C62.7839681,72.32115 68.6715976,76.9051899 68.6715976,91.0782797 C68.6715976,99.8486955 70.5708103,100.811389 71.9034566,99.9191724 C73.4502939,98.8835535 75.511435,86.8363271 80.7272487,86.8363271 C87.5938853,86.8363271 93.4955075,97.3623987 91.0825518,114.786158 C89.9758381,117.277637 79.8678281,119.813435 60.7585218,122.393553 Z" id="路径-3" fill="url(#linearGradient-2)"></path>
                    <path d="M240.526315,101.568193 C238.218001,100.237646 235.698203,100.326128 231.91932,102.686269 C228.140438,105.04641 221.737807,111.082225 218.125869,123.396087 L233.262581,127.780746 C235.079397,122.998656 237.500642,118.599892 240.526315,114.584456 C245.064825,108.561301 242.834629,102.89874 240.526315,101.568193 Z" id="路径-10" fill="url(#linearGradient-3)"></path>
                    <ellipse fill="url(#linearGradient-4)" cx="140" cy="179" rx="156" ry="67"></ellipse>
                    <g id="编组" transform="translate(103.000000, 33.000000)">
                        <rect id="矩形" stroke="url(#linearGradient-5)" stroke-width="5" fill="#F4F8FC" x="2.5" y="5.5" width="69" height="85" rx="8"></rect>
                        <rect id="矩形" fill="#DFE7EE" x="20" y="0" width="34" height="11" rx="3"></rect>
                        <rect id="矩形备份-2" fill="#D4DFEB" x="12" y="25" width="12" height="3" rx="1.5"></rect>
                        <rect id="矩形备份-7" fill="#E0E9F2" opacity="0.8" x="50" y="40" width="12" height="3" rx="1.5"></rect>
                        <rect id="矩形备份-4" fill="#D4DFEB" x="28" y="25" width="34" height="3" rx="1.5"></rect>
                        <rect id="矩形备份-6" fill="#E0E9F2" opacity="0.8" x="12" y="40" width="34" height="3" rx="1.5"></rect>
                        <rect id="矩形备份-8" fill="#E0E9F2" opacity="0.8" x="12" y="55" width="20" height="3" rx="1.5"></rect>
                        <rect id="矩形备份-10" fill="#E0E9F2" opacity="0.8" x="12" y="70" width="25" height="3" rx="1.5"></rect>
                        <rect id="矩形备份-9" fill="#E0E9F2" opacity="0.8" x="36" y="55" width="26" height="3" rx="1.5"></rect>
                    </g>
                    <g id="编组-3" transform="translate(143.000000, 86.000000)">
                        <g id="椭圆形">
                            <use fill="url(#linearGradient-6)" xlink:href="#path-7"></use>
                            <use fill-opacity="0.3" fill="#FFFFFF" xlink:href="#path-7"></use>
                        </g>
                        <rect id="矩形" fill="#FFFFFF" x="20" y="10.5" width="5" height="24" rx="2.5"></rect>
                        <rect id="矩形备份-11" fill="#FFFFFF" x="13" y="22.5" width="5" height="12" rx="2.5"></rect>
                        <rect id="矩形备份-12" fill="#FFFFFF" x="27" y="16.5" width="5" height="18" rx="2.5"></rect>
                    </g>
                    <path d="M58.5,28 C55.4624339,28 53,25.5375661 53,22.5 C53,19.4624339 55.4624339,17 58.5,17 C59.1399775,17 59.7544252,17.1093056 60.3256928,17.3102663 C61.2617095,14.2362742 64.1196998,12 67.5,12 C71.6421356,12 75,15.3578644 75,19.5 C75,19.6780687 74.9937943,19.8546879 74.9815874,20.0296533 C76.9632507,20.2660979 78.5,21.9535855 78.5,24 C78.5,26.209139 76.709139,28 74.5,28 L74.5,28 Z" id="形状结合" fill="url(#linearGradient-8)" opacity="0.75"></path>
                    <path d="M115,20 C111.134007,20 108,16.8659932 108,13 C108,9.13400675 111.134007,6 115,6 C115.879935,6 116.721949,6.16235995 117.497718,6.45875648 C118.765499,2.70346338 122.317036,0 126.5,0 C131.746705,0 136,4.25329488 136,9.5 C136,9.70064532 135.99378,9.89983782 135.981521,10.0973952 C138.272803,10.5522206 140,12.574406 140,15 C140,17.7614237 137.761424,20 135,20 L135,20 Z" id="形状结合备份" fill="url(#linearGradient-9)" opacity="0.75"></path>
                </g>
            </g>
        </g>
    </g>
</svg>
